X:3586
T:Crowley's Reel 1
T:Master Crowley's
S:as recorded by Michael Coleman in 1935 (1st time through)
D:Viva Voce 004
N:compare with Ceol Rince vol. 1 \#137. Transcribed by Alan Ng
R:reel
Z: id:ng-reels-23 transcribed by Alan Ng agng@students.wisc.edu Dec. 9, 1997
M:C|
K:D
[d3D2]B||AAAd B2dB|AD(3FED AD(3FED|[A4F4] ~B3c|dfeg fddB|\
AFdA B2(3dcB|AD(3FED AD(3FED|[A4F4] ~B3c|dfeg fdde||\
~f3a g2fg|eA(3cBA eA(3cBA|A~f3 g2fg|(3agf(3gfe fdde|\
fafa g2fg|eA(3cBA eA(3cBA|A~f3 g2fg|(3agf(3gfe fddB|]


